src/.images/svg/Battle/BattleTab/TabContainer/main/gearscore.svg

<svg viewBox="0 0 24 12" xmlns="http://www.w3.org/2000/svg"><path d="M0 2.4 2.4 0H12L9.6 2.4H2.4v7.2h7.2V7.2H4.8V4.8h4.8L12 7.2v2.4L9.6 12H2.4L0 9.6zM24 0h-9.6L12 2.4v2.4l2.4 2.4h7.2v2.4h-7.2L12 12h9.6L24 9.6V7.2l-2.4-2.4h-7.2V2.4h7.2z"/></svg>

<svg width="24" height="12" viewBox="0 0 24 12" xmlns="http://www.w3.org/2000/svg"><path d="M0 2.4L2.4 0H12L9.6 2.4H2.4V9.6H9.6V7.2H4.8V4.8H9.6L12 7.2V9.6L9.6 12H2.4L0 9.6V2.4Z" fill="white"/><path d="M24 0H14.4L12 2.4V4.8L14.4 7.2H21.6V9.6H14.4L12 12H21.6L24 9.6V7.2L21.6 4.8H14.4V2.4H21.6L24 0Z" fill="white"/></svg>
